X:1
T:Title
%%score { 1 | ( 2 3 ) }
L:1/8
Q:1/4=90
M:1/8
K:C
V:1 treble nm="Piano" snm="Pno."
V:2 bass 
V:3 bass 
V:1
"^Allegro Moderato" c |[M:2/4] .B/.c/ d2 c | d/e/ e2 ^f | ^f/g/ g2 =f/e/ | e/d/.c .c z | %5
 .B/.c/ d2- d/B/4d/4 | c7/4A/4 B.G | A4 | A,7/2 .c/ | .B/.c/ d2 c | d/e/ e2 ^f | ^f/g/ g2 =f/e/ | %12
 e/d/.c .c z | .B/.c/.d .d.B |{/d} .c.A{/c} .B.G | A4 | A,7/2 G/ |[M:9/16] A3 c/B/c/ | %18
[M:2/4] d>A .d.B | c3 B | c z/ e/ .a.b | c' z/ b/ .a.g | f z/ e/ .d.B | d/c/ c2 B | c>B .c.G | %25
[M:9/16] A3 c/B/c/ |[M:2/4] d>A .d.B |[M:9/16] d/c/ c2 d/c/d/ |[M:2/4] e>c G z | %29
 !wedge!A!wedge!e !wedge!A!wedge!e | !wedge!A!wedge!e !wedge!A!wedge!e | A4 |{/^G,} A,7/2 G/ | %33
[M:9/16] A3 c/B/c/ |[M:2/4] d>A dB | d/c/ c2 B | c z/ e/ .a.b | c' z/ b/ .a.g | f z/ e/ .d.B | %39
 d/c/ c2 B |{/d} c>B cG |[M:9/16] A3 c/B/c/ |[M:2/4] d>c .d.B |[M:9/16] d/c/ c2 d/c/d/ | %44
[M:2/4] e>c G z | !wedge!A!wedge!e !wedge!A!wedge!e | !wedge!A!wedge!e !wedge!A!wedge!e |!f! A4 | %48
{/^G,} A,4 |] %49
V:2
 z |[M:2/4] A,,2 [A,CE]2 | D,,2 [A,CD]2 | G,,2 CB, | [B,C]2{A,,E,} .A, z | E,,2 E,2- | E,4 | %7
 [A,^CE]2 A,,2 | [^CE]2 A,,,2 | [A,D^F]2 A,,2 | [A,CE]2{D,A,} D2 | [CD]2{G,,D,} B,2 | %12
 [G,E]2 !^!C,,!^!D,, | E,,2 E,2- | E,4 | [A,^CE]2 A,,2 | [^CE]2 A,,,2 |[M:9/16] z2 [A,D^F]2 z/ | %18
[M:2/4] [G,CE]2 [^F,B,D]2 | [E,B,C]2 A,,,2 | [E,A,C]2 [A,,G,]2 | [F,A,E]2 D,,2 | [G,B,D]2 E,,2 | %23
 [E,B,C]2 A,,2 | [E,A,C]2 G,,2 |[M:9/16] F,,2 [A,^D]2- [A,^D]/- |[M:2/4] [A,D]2{/E,} E2 | %27
[M:9/16] D,,2 [A,C^F]2- [A,C^F]/- |[M:2/4] [A,CF]4 | z2 [D,^F,C]2 | [A,C^F]2 [E,^G,D]2 | %31
 [E,A,^C]2 A,,2 | [^CE]2 A,,,2 |[M:9/16] [=CE]2 F,,2 z/ |[M:2/4] z2 [E,B,]2 | [D,A,]2 D,,2 | %36
 z2 [C,D,F,]2 | [B,,E,G,]2 [B,CE]2 | [A,CDF]2 [_A,CDF]2 | [G,CF]2 G,,2 | [G,CE]2 ^F,,2 | %41
[M:9/16] F,,2 [A,^D]2- [A,^D]/- |[M:2/4] [A,D]2 [A,^D]2 |[M:9/16] E,,2 [A,E]2- [A,E]/- | %44
[M:2/4] [A,E]4 | [_E,G,C]2 [D,^F,C]2 | [A,C^F]2 [E,^G,D]2 | [E,A,D]2 A,,2 | [^CE]2 A,,,2 |] %49
V:3
 x |[M:2/4] x4 | x4 | x4 | x4 | x2 [G,B,]2 | [A,C]2 [B,D]2 | x4 | x4 | x4 | x4 | x4 | A,/B,/C z2 | %13
 z2 [G,B,]2 | [A,C]2 [B,D]2 | x4 | x4 |[M:9/16] x9/2 |[M:2/4] x4 | x4 | x4 | x4 | x4 | x4 | x4 | %25
[M:9/16] x9/2 |[M:2/4] x4 |[M:9/16] x9/2 |[M:2/4] x4 | x4 | x4 | x4 | x4 |[M:9/16] x9/2 | %34
[M:2/4] x4 | x4 | x4 | x4 | x4 | x4 | x4 |[M:9/16] x9/2 |[M:2/4] x4 |[M:9/16] x9/2 |[M:2/4] x4 | %45
 x4 | x4 | x4 | x4 |] %49

